X:1
T:SOMEWHERE, MY LOVE  "http://freespace.virgin.net/michael.clarke2/index
M:C
L:1/8
Q:80
C:Slow Air
S:Lara's Theme from Dr Zhivago
K:HP
|: {g}G4{e}A3f|
{g}f4-f4|
((3{Gdc}d2{g}e2{Gdc}d2){Ad}A3G|  !
{g}G4-G4|
{g}G4{e}A3B|
{GdG}c4-c4|  !
((3{cd}c2B2{G}A2){g}A3g|
{afg}f4-f4|
{g}G4{e}A3f|  !
{g}f4-f4|
((3{Gdc}d2{g}e2{Gdc}d2){Ad}A3G|
{g}G4-G4|  !
{g}G4{e}A3B|
{GdG}c4-c4|
((3{cd}c2B2{G}A2){g}A3{gef}e|  !
{Gdc}d4-d4:| |:
{GdG}B4{Gdc}d4|
((3-d4{gef}e2d2{g}c2)|  !
{Gdc}d4{Bd}B4|
{G}A4-A4|
{g}A4-A4|  !
((3{g}B2A2{GdG}B2){GdG}c4|
{Gdc}d4{gef}e4|
-e4{g}G4|  !
{e}A3{gfg}f{g}f4|
((3-f4{g}c2e2d2)|
{Ad}A3G{g}G4|  !
-G4{g}G4|
{e}A3B{GdG}c4|
((3-c4{cd}c2B2{G}A2)|  !
{g}A3e{Gdc}d4|
-d4:|

